docs/.gitbook/assets/icon-person-lines-16@light.svg

<svg width="32" height="32" viewBox="0 0 16 16" fill="none" xmlns="http://www.w3.org/2000/svg">
<rect x="0" y="0" width="16" height="16" fill="#fff"/>
<path fill-rule="evenodd" clip-rule="evenodd" d="M5.99992 2.5C5.03342 2.5 4.24992 3.2835 4.24992 4.25C4.24992 5.2165 5.03342 6 5.99992 6C6.96642 6 7.74992 5.2165 7.74992 4.25C7.74992 3.2835 6.96642 2.5 5.99992 2.5ZM2.74992 4.25C2.74992 2.45507 4.205 1 5.99992 1C7.79485 1 9.24992 2.45507 9.24992 4.25C9.24992 6.04493 7.79485 7.5 5.99992 7.5C4.205 7.5 2.74992 6.04493 2.74992 4.25ZM10.9999 2.75C10.9999 2.33579 11.3357 2 11.7499 2L14.2499 2C14.6641 2 14.9999 2.33579 14.9999 2.75C14.9999 3.16421 14.6641 3.5 14.2499 3.5H11.7499C11.3357 3.5 10.9999 3.16421 10.9999 2.75ZM10.9999 6.25C10.9999 5.83579 11.3357 5.5 11.7499 5.5H14.2499C14.6641 5.5 14.9999 5.83579 14.9999 6.25C14.9999 6.66421 14.6641 7 14.2499 7H11.7499C11.3357 7 10.9999 6.66421 10.9999 6.25ZM6.24992 10C4.78379 10 3.18783 10.8904 2.54704 12.5599C2.46223 12.7809 2.50828 12.9782 2.66796 13.1558C2.84301 13.3505 3.14849 13.5 3.49897 13.5H6.24992C6.66413 13.5 6.99992 13.8358 6.99992 14.25C6.99992 14.6642 6.66413 15 6.24992 15H3.49897C2.74488 15 2.02639 14.6857 1.55257 14.1588C1.06338 13.6147 0.835656 12.8327 1.14665 12.0224C2.03193 9.71593 4.22636 8.5 6.24992 8.5C6.66413 8.5 6.99992 8.83579 6.99992 9.25C6.99992 9.66421 6.66413 10 6.24992 10ZM8.99992 9.75C8.99992 9.33579 9.33571 9 9.74992 9H14.2499C14.6641 9 14.9999 9.33579 14.9999 9.75C14.9999 10.1642 14.6641 10.5 14.2499 10.5H9.74992C9.33571 10.5 8.99992 10.1642 8.99992 9.75ZM8.99992 13.25C8.99992 12.8358 9.33571 12.5 9.74992 12.5H14.2499C14.6641 12.5 14.9999 12.8358 14.9999 13.25C14.9999 13.6642 14.6641 14 14.2499 14H9.74992C9.33571 14 8.99992 13.6642 8.99992 13.25Z" fill="#000"/>
</svg>

<svg xmlns="http://www.w3.org/2000/svg" width="32" height="32" fill="none" viewBox="0 0 16 16"><path fill="#fff" d="M0 0h16v16H0z"/><path fill="#000" fill-rule="evenodd" d="M6 2.5A1.75 1.75 0 1 0 6 6a1.75 1.75 0 0 0 0-3.5M2.75 4.25a3.25 3.25 0 1 1 6.5 0 3.25 3.25 0 0 1-6.5 0M11 2.75a.75.75 0 0 1 .75-.75h2.5a.75.75 0 0 1 0 1.5h-2.5a.75.75 0 0 1-.75-.75m0 3.5a.75.75 0 0 1 .75-.75h2.5a.75.75 0 0 1 0 1.5h-2.5a.75.75 0 0 1-.75-.75M6.25 10c-1.466 0-3.062.89-3.703 2.56-.085.22-.039.418.121.596.175.194.48.344.831.344h2.75a.75.75 0 0 1 0 1.5H3.5c-.754 0-1.473-.314-1.946-.841-.49-.544-.717-1.326-.406-2.137C2.032 9.716 4.227 8.5 6.25 8.5a.75.75 0 0 1 0 1.5M9 9.75A.75.75 0 0 1 9.75 9h4.5a.75.75 0 0 1 0 1.5h-4.5A.75.75 0 0 1 9 9.75m0 3.5a.75.75 0 0 1 .75-.75h4.5a.75.75 0 0 1 0 1.5h-4.5a.75.75 0 0 1-.75-.75" clip-rule="evenodd"/></svg>
